dist/img/svg/envelope.svg

<svg width="20" height="16" viewBox="0 0 20 16" fill="none" xmlns="http://www.w3.org/2000/svg"><path d="M20 2c0-1.1-.9-2-2-2H2C.9 0 0 .9 0 2v12c0 1.1.9 2 2 2h16c1.1 0 2-.9 2-2V2zm-2 0l-8 5-8-5h16zm0 12H2V4l8 5 8-5v10z" fill="#601DC0"/></svg>

<svg width="20" height="16" viewBox="0 0 20 16" fill="none" xmlns="http://www.w3.org/2000/svg">
<path d="M20 2C20 0.9 19.1 0 18 0H2C0.9 0 0 0.9 0 2V14C0 15.1 0.9 16 2 16H18C19.1 16 20 15.1 20 14V2ZM18 2L10 7L2 2H18ZM18 14H2V4L10 9L18 4V14Z" fill="#601DC0"/>
</svg>
